!!!OTL: WO ZUR FROHEN FEIERSTUNDE
!!!ARE: Europa, Mitteleuropa, Deutschland
!!!SCT: F0543
!!!YEM: Copyright 1995, estate of Helmut Schaffrath.
**kern
*ICvox
*Ivox
*M2/4
*k[b-]
*F:
=1
{4cc
8a
8b-
=2
4cc
4cc
=3
8dd
8ee
8ff
8ee
=4
8ee
8dd
4cc}
=5
{4.f
8f
=6
4a
4cc
=7
4ff
4aa
=8
2gg}
=9
{4cc
8a
8b-
=10
4cc
4cc
=11
8dd
8ee
8ff
8ee
=12
8ee
8dd
4cc}
=13
{4.f
8f
=14
4a
4cc
=15
4ff
4aa
=16
2gg}
=17
{4cc
8cc
8cc
=18
4dd
8dd
8dd
=19
8ee
8cc
8dd
8ee
=20
4ff
4r}
=21
{4ff
8ff
8ff
=22
4ff
8ee
8dd
=23
8cc
8b-
8a
8g
=24
4f
4r}
=25
{4cc
8cc
8cc
=26
4dd
8dd
8dd
=27
8ee
8cc
8dd
8ee
=28
4ff
4r}
=29
{4ff
8ff
8ff
=30
4ff
8ee
8dd
=31
8cc
8b-
8a
8g
=32
4f
4r}
==
!!!AGN: Studenten - Lied, Geselligkeit
!!!ONB: ESAC (Essen Associative Code) Database: FINK
!!!AMT: simple duple
!!!AIN: vox
!!!EED: Helmut Schaffrath
!!!EEV: 1.0
*-
